X: 9654
T: Daydream, The
R: hornpipe
M: 4/4
K: Amixolydian
|:"G"GABd "A"cAfe|"Bm"dBfg fdBA|"G"GABd efed|"A"cAAB A3c|
"D"d2Ad "A"cdec|"D"dfec "Bm"dcAB|"A"cBAF "Em"GEdc|"A"A4A2BA:|
|:"G"G3B dBG2|"Am"=c2BA "G"BGAB|"A"cAe2 e3d|"A"cAef edcA|
"D" d2fd "A"cdec|"Bm"dfec "A"dcAB|"A"cBAF "Em"GEdc|"A"A4 A2BA:|

